X:1
T:Lakes of Pontchartrain
M:4/4
L:1/8
K:G
 GF| G2 E2 F2 ^D2| E2 B,4 GG| EF ^D2 E4-| E2 EE| D3 D| D3 D D2 D2-|\
 DD D3 D D2-| DD D4 GF| G2 E2| F2 ^D2| E2 B,4 GG| EF ^D2 E4-| E2 EE A2 B2|\
 c2B-A|G-F E2| B,2 EF G2 FE| B,2 ^D2 E4|
